projects/seb-pictograms/svg/regular/02-Picto-Regular_black.svg

<svg xmlns="http://www.w3.org/2000/svg" viewBox="0 0 170 170"><path d="M57.6 135.2h16.1v6H57.6z"/><path d="M30.6 122.3V47.4h13.5v-6H30.6V28.5a8 8 0 018-8h53.9a8 8 0 018 8h6a14 14 0 00-14-14H38.6a14 14 0 00-14 14v113a14 14 0 0014 14h53.9a14 14 0 0014-14v-19.2zm61.9 27.2H38.6a8 8 0 01-8-8v-13.2h69.9v13.2a8 8 0 01-8 8z"/><path d="M85 54h30.9v6H85z"/><path d="M120.5 116.5h-14.8a3 3 0 01-3-3V105h-8.8v8.5a3 3 0 01-3 3H76.2a3 3 0 01-3-3v-10.2a32.5 32.5 0 01-20.5-20.5h-4.4a3 3 0 01-3-3V65a3 3 0 013-3h4.5a32.6 32.6 0 0117.1-19.1V32.3a3 3 0 013-3 13.6 13.6 0 0113.3 10.6h26.2a33 33 0 0111.2 64h-.1v9.6a3 3 0 01-3 3zm-11.8-6h8.8v-8.7a3 3 0 012.2-2.9l1.8-.6a27 27 0 00-9.1-52.4H83.6a3 3 0 01-3-3 7.6 7.6 0 00-4.6-7v9a3 3 0 01-2 2.8 26.6 26.6 0 00-16.2 18.1 3 3 0 01-2.9 2.2h-3.6v8.8H55a3 3 0 012.9 2.3 26.5 26.5 0 0019 19 3 3 0 012.3 2.9v9.4H88V102a3 3 0 013-3h14.8a3 3 0 013 3z"/></svg>

<svg id="PIKTO_REGULAR" xmlns="http://www.w3.org/2000/svg" viewBox="0 0 170 170"><title>regular_black</title><rect x="57.6" y="135.2" width="16.1" height="6"/><path d="M30.6,122.3V47.4H44.1v-6H30.6V28.5a8,8,0,0,1,8-8H92.5a8,8,0,0,1,8,8h6a14,14,0,0,0-14-14H38.6a14,14,0,0,0-14,14v113a14,14,0,0,0,14,14H92.5a14,14,0,0,0,14-14V122.3Zm61.9,27.2H38.6a8,8,0,0,1-8-8V128.3h69.9v13.2A8,8,0,0,1,92.5,149.5Z"/><rect x="85" y="54" width="30.9" height="6"/><path d="M120.5,116.5H105.7a3,3,0,0,1-3-3V105H93.9v8.5a3,3,0,0,1-3,3H76.2a3,3,0,0,1-3-3V103.3A32.5,32.5,0,0,1,52.7,82.8H48.3a3,3,0,0,1-3-3V65a3,3,0,0,1,3-3h4.5A32.6,32.6,0,0,1,69.9,42.9V32.3a3,3,0,0,1,3-3A13.6,13.6,0,0,1,86.2,39.9h26.2a33,33,0,0,1,11.2,64h-.1v9.6A3,3,0,0,1,120.5,116.5Zm-11.8-6h8.8v-8.7a3,3,0,0,1,2.2-2.9l1.8-.6a27,27,0,0,0-9.1-52.4H83.6a3,3,0,0,1-3-3,7.6,7.6,0,0,0-4.6-7v9A3,3,0,0,1,74,47.7,26.6,26.6,0,0,0,57.8,65.8,3,3,0,0,1,54.9,68H51.3v8.8h3.7a3,3,0,0,1,2.9,2.3A26.5,26.5,0,0,0,76.9,98.1a3,3,0,0,1,2.3,2.9v9.4h8.8V102a3,3,0,0,1,3-3h14.8a3,3,0,0,1,3,3Z"/></svg>
